X:1
T:Title
L:1/8
Q:1/4=100
M:6/8
K:F
V:1 treble nm="Church Organ, Staff"
V:1
 A A2 AAG | F c2- c/ z/ .c2 | c d2 ddc | A c2- c A2 | A B2 B A2 | G c2 A F2 | B A2 B A2 | %7
w: By~C.~F.~Roper * * * *|||||||
 G F2- F/ z/ z z | A A2 AAG | F c2 c .c2 | c d2 ded | e f2- f3/2 z/ z | d c2 A c2 | d c2 A F2 | %14
w: |||||||
 B A2 B A2 | G F2- F3/2 z/ z |] %16
w: ||

